www/assets/duotune/files/fil012.svg

<?xml version="1.0" encoding="UTF-8"?>
<svg id="Camada_1" xmlns="http://www.w3.org/2000/svg" version="1.1" viewBox="0 0 24 24">
  <!-- Generator: Adobe Illustrator 29.0.0, SVG Export Plug-In . SVG Version: 2.1.0 Build 186)  -->
  <defs>
    <style>
      .st0, .st1 {
        fill: #fff;
      }

      .st1 {
        isolation: isolate;
        opacity: .3;
      }
    </style>
  </defs>
  <path class="st1" d="M10,4h11c.6,0,1,.4,1,1v2h-12v-3Z"/>
  <path class="st0" d="M9.2,3H3c-.6,0-1,.4-1,1v15c0,.6.4,1,1,1h18c.6,0,1-.4,1-1V7c0-.6-.4-1-1-1h-9l-1.6-2.4c-.2-.4-.7-.6-1.2-.6Z"/>
</svg>

<svg width="24" height="24" viewBox="0 0 24 24" fill="none" xmlns="http://www.w3.org/2000/svg">
<path opacity="0.3" d="M10 4H21C21.6 4 22 4.4 22 5V7H10V4Z" fill="currentColor"/>
<path d="M9.2 3H3C2.4 3 2 3.4 2 4V19C2 19.6 2.4 20 3 20H21C21.6 20 22 19.6 22 19V7C22 6.4 21.6 6 21 6H12L10.4 3.60001C10.2 3.20001 9.7 3 9.2 3Z" fill="currentColor"/>
</svg>
